public/images/zcool.svg

<svg fill="none" height="90" viewBox="0 0 90 90" width="90" xmlns="http://www.w3.org/2000/svg"><path d="m37.1325 81.8963c-3.8919-.0005-7.7456-.7676-11.341-2.2574-3.5955-1.4898-6.8623-3.6732-9.6139-6.4256-2.7516-2.7523-4.9342-6.0196-6.42311-9.6155-1.48891-3.5958-2.25498-7.4497-2.25449-11.3415 0-13.6688 9.2512-25.7813 21.84-28.5938 14.7038-3.3 21.39-5.88 26.535-16.1625 3.7425 7.2563 1.2113 13.9125 0 17.5388 17.6175-4.2338 23.8913-12.3001 25.4025-13.3051 0 14.8201-4.6163 24.1951-9.0713 30.2438 5.535-.21 7.5338-1.815 10.2901-2.2012-1.2188 5.43-5.625 13.0875-16.2375 17.9812-1.2828 6.7871-4.8953 12.9132-10.2138 17.3204s-12.009 6.8188-18.9163 6.8184zm13.9125-24.195c0 1.2112-.1988 1.815-1.5113 1.815l-11.8124.0075 11.1-12.18c3.2249-3.225 3.2249-4.8375 3.2249-8.955 0-1.2525-.18-2.6888.18-3.9375.1763-.54-.18-.72-.7162-.54-1.2563.3562-3.405.3562-6.9862.3562h-16.1176c-.8962 0-1.2562-.5362-.8962-1.2525 0-.18 0-.7162-.36-.7162-2.325 1.0725-2.865 5.91-2.685 8.955 0 1.6125.8962 2.5087 2.1488 2.5087h12.7162l-13.0725 13.9688c-.9 1.0762-1.7925 2.5087-1.7925 4.4775v3.9412c0 1.7925 1.0763 2.865 3.045 3.225h22.455c2.0813 0 3.4987-.8737 3.4987-3.2062v-4.2338c0-.78.0001-3.63-2.4187-4.2337z" fill="#000"/></svg>

<svg width="90" height="90" viewBox="0 0 90 90" fill="none" xmlns="http://www.w3.org/2000/svg">
<path d="M37.1325 81.8963C33.2406 81.8958 29.3869 81.1287 25.7915 79.6389C22.196 78.1491 18.9292 75.9657 16.1776 73.2133C13.426 70.461 11.2434 67.1937 9.75449 63.5978C8.26558 60.002 7.49951 56.1481 7.5 52.2563C7.5 38.5875 16.7512 26.475 29.34 23.6625C44.0438 20.3625 50.73 17.7825 55.875 7.5C59.6175 14.7563 57.0863 21.4125 55.875 25.0388C73.4925 20.805 79.7663 12.7387 81.2775 11.7337C81.2775 26.5538 76.6612 35.9288 72.2062 41.9775C77.7412 41.7675 79.74 40.1625 82.4963 39.7763C81.2775 45.2063 76.8713 52.8638 66.2588 57.7575C64.976 64.5446 61.3635 70.6707 56.045 75.0779C50.7265 79.4851 44.036 81.8967 37.1287 81.8963H37.1325ZM51.045 57.7013C51.045 58.9125 50.8462 59.5163 49.5337 59.5163L37.7213 59.5238L48.8213 47.3438C52.0462 44.1188 52.0462 42.5063 52.0462 38.3888C52.0462 37.1363 51.8662 35.7 52.2262 34.4513C52.4025 33.9113 52.0462 33.7313 51.51 33.9113C50.2537 34.2675 48.105 34.2675 44.5238 34.2675H28.4062C27.51 34.2675 27.15 33.7313 27.51 33.015C27.51 32.835 27.51 32.2988 27.15 32.2988C24.825 33.3713 24.285 38.2088 24.465 41.2538C24.465 42.8663 25.3612 43.7625 26.6138 43.7625H39.33L26.2575 57.7313C25.3575 58.8075 24.465 60.24 24.465 62.2088V66.15C24.465 67.9425 25.5413 69.015 27.51 69.375H49.965C52.0463 69.375 53.4637 68.5013 53.4637 66.1688V61.935C53.4637 61.155 53.4638 58.305 51.045 57.7013Z" fill="black"/>
</svg>
